svgs/regular/chart-network.svg

<svg xmlns="http://www.w3.org/2000/svg" viewBox="0 0 640 512"><!--! Font Awesome Pro 6.4.2 by @fontawesome - https://fontawesome.com License - https://fontawesome.com/license (Commercial License) Copyright 2023 Fonticons, Inc. --><path d="M288 64c0 16.9-6.5 32.2-17.2 43.6l26.9 57.5c12.2-3.4 25-5.2 38.3-5.2c39 0 74.4 15.5 100.3 40.7l77.6-56.9c-1.3-5-1.9-10.3-1.9-15.7c0-35.3 28.7-64 64-64s64 28.7 64 64s-28.7 64-64 64c-12.3 0-23.9-3.5-33.7-9.6l-77.6 56.9c9.8 19.4 15.3 41.4 15.3 64.6c0 18.5-3.5 36.2-9.9 52.5l67.3 40.4c10.7-8.1 24.1-12.9 38.5-12.9c35.3 0 64 28.7 64 64s-28.7 64-64 64s-64-28.7-64-64c0-3.4 .3-6.7 .8-9.9l-67.4-40.4C419 428.5 379.8 448 336 448c-71.4 0-130.6-51.9-142-120H123.3c-9.5 23.5-32.5 40-59.3 40c-35.3 0-64-28.7-64-64s28.7-64 64-64c26.9 0 49.9 16.5 59.3 40H194c6.6-39.1 28.9-72.9 60.2-94.5l-26.9-57.6c-1.1 .1-2.2 .1-3.3 .1c-35.3 0-64-28.7-64-64s28.7-64 64-64s64 28.7 64 64zm48 336a96 96 0 1 0 0-192 96 96 0 1 0 0 192z"/></svg>

<svg xmlns="http://www.w3.org/2000/svg" viewBox="0 0 640 512"><!--! Font Awesome Pro 6.1.1 by @fontawesome - https://fontawesome.com License - https://fontawesome.com/license (Commercial License) Copyright 2022 Fonticons, Inc. --><path d="M288 64C288 80.85 281.5 96.18 270.8 107.6L297.7 165.2C309.9 161.8 322.7 160 336 160C374.1 160 410.4 175.5 436.3 200.7L513.9 143.7C512.7 138.7 512 133.4 512 128C512 92.65 540.7 64 576 64C611.3 64 640 92.65 640 128C640 163.3 611.3 192 576 192C563.7 192 552.1 188.5 542.3 182.4L464.7 239.4C474.5 258.8 480 280.8 480 304C480 322.5 476.5 340.2 470.1 356.5L537.5 396.9C548.2 388.8 561.5 384 576 384C611.3 384 640 412.7 640 448C640 483.3 611.3 512 576 512C540.7 512 512 483.3 512 448C512 444.6 512.3 441.3 512.8 438.1L445.4 397.6C418.1 428.5 379.8 448 336 448C264.6 448 205.4 396.1 193.1 328H123.3C113.9 351.5 90.86 368 64 368C28.65 368 0 339.3 0 304C0 268.7 28.65 240 64 240C90.86 240 113.9 256.5 123.3 280H193.1C200.6 240.9 222.9 207.1 254.2 185.5L227.3 127.9C226.2 127.1 225.1 128 224 128C188.7 128 160 99.35 160 64C160 28.65 188.7 0 224 0C259.3 0 288 28.65 288 64V64zM336 400C389 400 432 357 432 304C432 250.1 389 208 336 208C282.1 208 240 250.1 240 304C240 357 282.1 400 336 400z"/></svg>
